modules/coreui-icons-free/icons/memory.svg

<!-- Generated by IcoMoon.io -->
<svg version="1.1" xmlns="http://www.w3.org/2000/svg" width="24" height="24" viewBox="0 0 24 24">
<title>memory</title>
<path d="M15 9h-6v6h6zM13.5 13.5h-3v-3h3z"></path>
<path d="M22.5 10.5v-1.5h-3.375v-4.125h-4.125v-3.375h-1.5v3.375h-3v-3.375h-1.5v3.375h-4.125v4.125h-3.375v1.5h3.375v3h-3.375v1.5h3.375v4.125h4.125v3.375h1.5v-3.375h3v3.375h1.5v-3.375h4.125v-4.125h3.375v-1.5h-3.375v-3zM17.625 17.625h-11.25v-11.25h11.25z"></path>
</svg>

<svg xmlns="http://www.w3.org/2000/svg" width="24" height="24" viewBox="0 0 24 24"><path d="M15 9H9v6h6zm-1.5 4.5h-3v-3h3z"/><path d="M22.5 10.5V9h-3.375V4.875H15V1.5h-1.5v3.375h-3V1.5H9v3.375H4.875V9H1.5v1.5h3.375v3H1.5V15h3.375v4.125H9V22.5h1.5v-3.375h3V22.5H15v-3.375h4.125V15H22.5v-1.5h-3.375v-3zm-4.875 7.125H6.375V6.375h11.25z"/></svg>
